!!!ONB: MCCC : IFS0515_05 : Extracted Monophonic Melody
!!!COM: Schubert, Franz
!!!OPR: 6 Moments musicaux
!!!OMV: 5
!!!SCT: D.780 (Op.94)
!!!ODT: 1823///
**kern
*staff1
=1
*clefG2
*k[b-e-a-d-]
*A-:
*M2/4
4aa-
8gg
8ff
=2
4ff
8cc
8cc
=3
4ff
8dd-
8dd-
=4
4ff
8cc
8cc
=5
4cc
8cc
8cc
=6
4cc
8cc
8cc
=7
4dd-
8dd-
8dd-
=8
4cc
8cc
8cc
=9
4cc-
8cc-
8cc-
=10
4cc
8cc
8cc
=11
4dd
8cc-
8cc-
=12
4ee-
8cc
8cc
=13
4ff
8gg
8gg
=14
4ff#
8gg
8gg
=15
4gg
4aa-
=16
4aa-
4aa-
=17
4aa-
4ddd-
=18
4ddd-
8ddd-
8ddd-
=19
4eee-
8eee-
8eee-
=20
4ddd-
4ccc-
=21
4ccc
4ccc
=22
4aa-
8gg
8ff
=23
4ff
8cc
8cc
=24
4ff
8dd-
8dd-
=25
4ff
8cc
8cc
=26
4cc
8cc
8cc
=27
4cc
8cc
8cc
=28
4dd-
8dd-
8dd-
=29
4cc
8cc
8cc
=30
4cc-
8cc-
8cc-
=31
4cc
8cc
8cc
=32
4dd
8cc-
8cc-
=33
4ee-
8cc
8cc
=34
4ff
8gg
8gg
=35
4ff#
8gg
8gg
=36
4gg
4aa-
=37
4aa-
4aa-
=38
4aa-
4ddd-
=39
4ddd-
8ddd-
8ddd-
=40
4eee-
8eee-
8eee-
=41
4ddd-
4ccc-
=42
4ccc
4ccc
=43
4cc
8cc
8cc
=44
4cc
8cc
8cc
=45
4a-
8a-
8a-
=46
4ff
4dd-
=47
4a-
8a-
8a-
=48
4ff
4dd-
=49
4ff
8ff
8ff
=50
4ff
8ff
8ff
=51
4dd-
8dd-
8dd-
=52
4bb-
4gg-
=53
4dd-
8dd-
8dd-
=54
4bb-
4gg-
=55
8bb-
8b-
8gg-
8b-
=56
8gg-
8g-
8dd
8g-
=57
8ee
8g
8dd-
8g
=58
8dd-
8g-
8dd
8g-
=59
8ff
8b-
8ee
8b-
=60
8gg-
8b-
8gg-
8cc-
=61
8ccc-
8cc-
8gg
8cc-
=62
8gg
8g
8ee-
8g
=63
8ff
8a-
8dd
8a-
=64
8dd
8g
8ee-
8g
=65
8aa-
8cc-
8ff
8cc-
=66
8gg
8cc-
8gg
8cc
=67
8b-
8ee-
8dd
8ee-
=68
8ee-
8aa-
8gg
8aa-
=69
8eee-
8ee-
8gg
8ee-
=70
8ee-
8aa-
8gg
8aa-
=71
8gg-
8g-
8b-
8g-
=72
8g-
8cc-
8b-
8cc-
=73
8cc-
8ee
8dd#
8ee
=74
8ee
8aa
8gg#
8aa
=75
8eee
8ee
8aa-
8ee
=76
8ee
8aa
8gg#
8aa
=77
8gg
8g
8cc-
8g
=78
8g
8cc
8b
8cc
=79
4dd-
8dd-
8dd-
=80
4dd-
8dd-
8dd-
=81
4dd-
8dd-
8dd-
=82
4ccc
8ccc
8ccc
=83
4dd-
8dd-
8dd-
=84
4dd-
8dd-
8dd-
=85
4dd-
8dd-
8dd-
=86
4ccc
8ccc
8ccc
=87
4dd-
8dd-
8dd-
=88
4ccc
8ccc
8ccc
=89
4c
8d-
8c
=90
4d-
8c
8d
=91
4e
8f
8e
=92
4f
8e
8f#
=93
4g
8a-
8g
=94
4b-
8a-
8dd-
=95
4cc
8dd
8ee-
=96
4ee
8ff
8gg
=97
4aa-
8gg
8ff
=98
4ff
8cc
8cc
=99
4ff
8dd-
8dd-
=100
4ff
8cc
8cc
=101
4cc
8cc
8cc
=102
4cc
8cc
8cc
=103
4dd-
8dd-
8dd-
=104
4cc
8cc
8cc
=105
4ee
8ee
8ee
=106
4ff
8ff
8ff
=107
4gg
8ee
8ee
=108
4aa-
8ff
8ff
=109
4bb-
8ccc
8ccc
=110
4bb
8ccc
8ccc
=111
4ccc
4ddd-
=112
4ddd-
4ddd-
=113
4ddd-
4ggg-
=114
4ggg-
8ggg-
8ggg-
=115
4aaa-
8aaa-
8aaa-
=116
4ggg-
4ccc-
=117
4ccc
4ccc
=118
4ff
8f
8g
=119
4a
8b-
8cc
=120
4dd
8ee
8ee
=121
4ee
8ff
8ff
=122
4cc
8b-
8b-
=123
4aa
4ff
=124
4cc
8dd
8dd
=125
4ee
8ff
8ff
=126
4cc
8b-
8b-
=127
4aa
4ff
=128
4cc
8b-
8b-
=129
4aa
4ff
=130
4cc
8b-
8b-
=131
4fff
4ff
=132
2r
=133
4cc
8cc
8cc
=134
4cc
8cc
8cc
=135
4a-
8a-
8a-
=136
4ff
4dd-
=137
4a-
8a-
8a-
=138
4ff
4dd-
=139
4ff
8ff
8ff
=140
4ff
8ff
8ff
=141
4dd-
8dd-
8dd-
=142
4bb-
4gg-
=143
4dd-
8dd-
8dd-
=144
4bb-
4gg-
=145
8bb-
8b-
8gg-
8b-
=146
8gg-
8g-
8dd
8g-
=147
8ee
8g
8dd-
8g
=148
8dd-
8g-
8dd
8g-
=149
8ff
8b-
8ee
8b-
=150
8gg-
8b-
8gg-
8cc-
=151
8ccc-
8cc-
8gg
8cc-
=152
8gg
8g
8ee-
8g
=153
8ff
8a-
8dd
8a-
=154
8dd
8g
8ee-
8g
=155
8aa-
8cc-
8ff
8cc-
=156
8gg
8cc-
8gg
8cc
=157
8b-
8ee-
8dd
8ee-
=158
8ee-
8aa-
8gg
8aa-
=159
8eee-
8ee-
8gg
8ee-
=160
8ee-
8aa-
8gg
8aa-
=161
8gg-
8g-
8b-
8g-
=162
8g-
8cc-
8b-
8cc-
=163
8cc-
8ee
8dd#
8ee
=164
8ee
8aa
8gg#
8aa
=165
8eee
8ee
8aa-
8ee
=166
8ee
8aa
8gg#
8aa
=167
8gg
8g
8cc-
8g
=168
8g
8cc
8b
8cc
=169
4dd-
8dd-
8dd-
=170
4dd-
8dd-
8dd-
=171
4dd-
8dd-
8dd-
=172
4ccc
8ccc
8ccc
=173
4dd-
8dd-
8dd-
=174
4dd-
8dd-
8dd-
=175
4dd-
8dd-
8dd-
=176
4ccc
8ccc
8ccc
=177
4dd-
8dd-
8dd-
=178
4ccc
8ccc
8ccc
=179
4c
8d-
8c
=180
4d-
8c
8d
=181
4e
8f
8e
=182
4f
8e
8f#
=183
4g
8a-
8g
=184
4b-
8a-
8dd-
=185
4cc
8dd
8ee-
=186
4ee
8ff
8gg
=187
4aa-
8gg
8ff
=188
4ff
8cc
8cc
=189
4ff
8dd-
8dd-
=190
4ff
8cc
8cc
=191
4cc
8cc
8cc
=192
4cc
8cc
8cc
=193
4dd-
8dd-
8dd-
=194
4cc
8cc
8cc
=195
4ee
8ee
8ee
=196
4ff
8ff
8ff
=197
4gg
8ee
8ee
=198
4aa-
8ff
8ff
=199
4bb-
8ccc
8ccc
=200
4bb
8ccc
8ccc
=201
4ccc
4ddd-
=202
4ddd-
4ddd-
=203
4ddd-
4ggg-
=204
4ggg-
8ggg-
8ggg-
=205
4aaa-
8aaa-
8aaa-
=206
4ggg-
4ccc-
=207
4ccc
4ccc
=208
4ff
8f
8g
=209
4a
8b-
8cc
=210
4dd
8ee
8ee
=211
4ee
8ff
8ff
=212
4cc
8b-
8b-
=213
4aa
4ff
=214
4cc
8dd
8dd
=215
4ee
8ff
8ff
=216
4cc
8b-
8b-
=217
4aa
4ff
=218
4cc
8b-
8b-
=219
4aa
4ff
=220
4cc
8b-
8b-
=221
4fff
4ff
==
*-
